X: 1
T: Major L Stewart's
R: reel
M: 4/4
L: 1/8
K: Gmaj
G2 g2 (3agf g2|egdg egdg|G2 g2 (3agf g2|faAB cBcA|
G2 g2 (3agf g2|egdg egdg|G2 g2 (3agf g2|faAB cdef|
gbeg dgB2|gbeg fgaf|gbeg dgB2|ABcd edef|
gbeg dgB2|gbeg fgaf|gbfa egdg|caBg ABcA||

